src/assets/img/dist/icons/purple-line.svg

<svg width="869" height="280" fill="none" xmlns="http://www.w3.org/2000/svg"><path d="M40 113.5l44.29 60.67c39.273 53.798 107.664 77.792 171.94 60.323v0a59.278 59.278 0 0042.948-47.593l6.863-41.763C322.55 44.67 445.742 4.929 517.848 76.81l95.907 95.608c27.966 27.879 73.894 25.5 98.83-5.119v0c30.467-37.412 89.347-31.108 111.205 11.904l4.812 9.469" stroke="#8F00FF" stroke-width="79" stroke-linecap="round"/></svg>

<svg width="869" height="280" viewBox="0 0 869 280" fill="none" xmlns="http://www.w3.org/2000/svg">
<path d="M40 113.5L84.29 174.17C123.563 227.968 191.954 251.962 256.23 234.493V234.493C278.629 228.406 295.415 209.805 299.178 186.9L306.041 145.137C322.55 44.6698 445.742 4.92933 517.848 76.8104L613.755 172.418C641.721 200.297 687.649 197.918 712.585 167.299V167.299C743.052 129.887 801.932 136.191 823.79 179.203L828.602 188.672" stroke="#8F00FF" stroke-width="79" stroke-linecap="round"/>
</svg>
